build/img/icons/briefcase2.svg

<svg width="36" height="36" viewBox="0 0 36 36" fill="none" xmlns="http://www.w3.org/2000/svg">
<path d="M21 16.5H15V19.5H21V16.5Z" fill="#FF9900"/>
<path d="M21 16.5H15V19.5H21V16.5Z" fill="url(#paint0_linear)" fill-opacity="0.35"/>
<path fill-rule="evenodd" clip-rule="evenodd" d="M10.5 7.5V6C10.5 4.34317 11.8431 3 13.5 3H22.5C24.1569 3 25.5 4.34317 25.5 6V7.5H30C32.4853 7.5 34.5 9.51471 34.5 12V27C34.5 29.4853 32.4853 31.5 30 31.5H6C3.51471 31.5 1.5 29.4853 1.5 27V12C1.5 9.51471 3.51471 7.5 6 7.5H10.5ZM13.5 6H22.5V7.5H13.5V6ZM6 10.5C5.17163 10.5 4.5 11.1715 4.5 12V21H31.5V12C31.5 11.1715 30.8284 10.5 30 10.5H6ZM4.5 27V24H31.5V27C31.5 27.8285 30.8284 28.5 30 28.5H6C5.17163 28.5 4.5 27.8285 4.5 27Z" fill="#FF9900"/>
<path fill-rule="evenodd" clip-rule="evenodd" d="M10.5 7.5V6C10.5 4.34317 11.8431 3 13.5 3H22.5C24.1569 3 25.5 4.34317 25.5 6V7.5H30C32.4853 7.5 34.5 9.51471 34.5 12V27C34.5 29.4853 32.4853 31.5 30 31.5H6C3.51471 31.5 1.5 29.4853 1.5 27V12C1.5 9.51471 3.51471 7.5 6 7.5H10.5ZM13.5 6H22.5V7.5H13.5V6ZM6 10.5C5.17163 10.5 4.5 11.1715 4.5 12V21H31.5V12C31.5 11.1715 30.8284 10.5 30 10.5H6ZM4.5 27V24H31.5V27C31.5 27.8285 30.8284 28.5 30 28.5H6C5.17163 28.5 4.5 27.8285 4.5 27Z" fill="url(#paint1_linear)" fill-opacity="0.35"/>
<defs>
<linearGradient id="paint0_linear" x1="32.5588" y1="25.6324" x2="9.48927" y2="3.86693" gradientUnits="userSpaceOnUse">
<stop stop-color="white"/>
<stop offset="1" stop-color="white" stop-opacity="0"/>
</linearGradient>
<linearGradient id="paint1_linear" x1="32.5588" y1="25.6324" x2="9.48927" y2="3.86693" gradientUnits="userSpaceOnUse">
<stop stop-color="white"/>
<stop offset="1" stop-color="white" stop-opacity="0"/>
</linearGradient>
</defs>
</svg>

<svg width="36" height="36" viewBox="0 0 36 36" fill="none" xmlns="http://www.w3.org/2000/svg">
    <path d="M21 16.5h-6v3h6v-3z" fill="#F90"/>
    <path d="M21 16.5h-6v3h6v-3z" fill="url(#a)" fill-opacity=".35"/>
    <path fill-rule="evenodd" clip-rule="evenodd" d="M10.5 7.5V6a3 3 0 0 1 3-3h9a3 3 0 0 1 3 3v1.5H30a4.5 4.5 0 0 1 4.5 4.5v15a4.5 4.5 0 0 1-4.5 4.5H6A4.5 4.5 0 0 1 1.5 27V12A4.5 4.5 0 0 1 6 7.5h4.5zm3-1.5h9v1.5h-9V6zM6 10.5A1.5 1.5 0 0 0 4.5 12v9h27v-9a1.5 1.5 0 0 0-1.5-1.5H6zM4.5 27v-3h27v3a1.5 1.5 0 0 1-1.5 1.5H6A1.5 1.5 0 0 1 4.5 27z" fill="#F90"/>
    <path fill-rule="evenodd" clip-rule="evenodd" d="M10.5 7.5V6a3 3 0 0 1 3-3h9a3 3 0 0 1 3 3v1.5H30a4.5 4.5 0 0 1 4.5 4.5v15a4.5 4.5 0 0 1-4.5 4.5H6A4.5 4.5 0 0 1 1.5 27V12A4.5 4.5 0 0 1 6 7.5h4.5zm3-1.5h9v1.5h-9V6zM6 10.5A1.5 1.5 0 0 0 4.5 12v9h27v-9a1.5 1.5 0 0 0-1.5-1.5H6zM4.5 27v-3h27v3a1.5 1.5 0 0 1-1.5 1.5H6A1.5 1.5 0 0 1 4.5 27z" fill="url(#b)" fill-opacity=".35"/>
    <defs>
        <linearGradient id="a" x1="32.559" y1="25.632" x2="9.489" y2="3.867" gradientUnits="userSpaceOnUse">
            <stop stop-color="#fff"/>
            <stop offset="1" stop-color="#fff" stop-opacity="0"/>
        </linearGradient>
        <linearGradient id="b" x1="32.559" y1="25.632" x2="9.489" y2="3.867" gradientUnits="userSpaceOnUse">
            <stop stop-color="#fff"/>
            <stop offset="1" stop-color="#fff" stop-opacity="0"/>
        </linearGradient>
    </defs>
</svg>
